www/assets/icons/sports_bar.svg

<svg width="24" height="24" viewBox="0 0 24 24" xmlns="http://www.w3.org/2000/svg" fill='currentColor'><path d="M19 9.48977H17.44C17.79 8.89977 18 8.21977 18 7.48977C18 5.27977 16.21 3.48977 14 3.48977C13.66 3.48977 13.34 3.53977 13.02 3.61977C12.2 2.93977 11.16 2.50977 10 2.50977C8.11 2.50977 6.49 3.61977 5.73 5.21977C4.15 5.74977 3 7.22977 3 8.98977C3 10.8498 4.28 12.3998 6 12.8498V21.4898H17V19.4898H19C20.1 19.4898 21 18.5898 21 17.4898V11.4898C21 10.3898 20.1 9.48977 19 9.48977ZM7 10.9898C5.9 10.9898 5 10.0898 5 8.98977C5 8.13977 5.55 7.38977 6.37 7.10977L7.17 6.83977L7.53 6.07977C8 5.10977 8.94 4.50977 10 4.50977C10.79 4.50977 11.39 4.85977 11.74 5.15977L12.52 5.80977C12.52 5.80977 13.16 5.48977 13.99 5.48977C15.09 5.48977 15.99 6.38977 15.99 7.48977H12.99C9.67 7.48977 9.15 10.9898 7 10.9898ZM19 17.4898H17V11.4898H19V17.4898Z"/></svg>

<svg xmlns="http://www.w3.org/2000/svg" width="24" height="24" viewBox="0 0 24 24" fill='currentColor'><path d="M19 9.49h-1.56c.35-.59.56-1.27.56-2 0-2.21-1.79-4-4-4-.34 0-.66.05-.98.13A4.7 4.7 0 0 0 10 2.51c-1.89 0-3.51 1.11-4.27 2.71C4.15 5.75 3 7.23 3 8.99c0 1.86 1.28 3.41 3 3.86v8.64h11v-2h2c1.1 0 2-.9 2-2v-6c0-1.1-.9-2-2-2m-12 1.5c-1.1 0-2-.9-2-2 0-.85.55-1.6 1.37-1.88l.8-.27.36-.76C8 5.11 8.94 4.51 10 4.51c.79 0 1.39.35 1.74.65l.78.65s.64-.32 1.47-.32c1.1 0 2 .9 2 2h-3c-3.32 0-3.84 3.5-5.99 3.5m12 6.5h-2v-6h2z"/></svg>
